!!!!SEGMENT: pl-wtm--r-97-m_moniuszko-stanislaw--do-mojej-piosnki.krn
!!!cenid: 18xx:2969
!!!COM: Moniuszko, Stanisław
!!!COM-rismID: pe30008351
!!!CDT: 1819/05/05-1872/06/04
!!!CNT: Polish
!!!OTL: Do mojej piosnki
!!!PDT:
!!!AGN: Secular
!!!SMS-siglum: PL-Wtm
!!!SMS-shelfmark: R 97/M
!!!SMS-shelfwork: W
!!!SMS-variant:
!!!SMS-altvar:
!!!NIFC-rismSourceID: 1001083782
!!!NIFC-islandoraID:
!!!URL-pdf-islandora:
!!!URL-scan:
!!!ONB-nifc:
!!!AIN: 1 empty 1 vox
!!!key:
**kern	**kern	**dynam	**kern	**text	**text	**dynam
*part2	*part2	*part2	*part1	*part1	*part1	*part1
*staff3	*staff2	*	*staff1	*staff1	*staff1	*
*Iempty	*Iforte	*	*Ivox	*	*	*
*	*I"fortepian	*	*I"Głos	*	*	*
*>[A,B,B,C]	*>[A,B,B,C]	*	*>[A,B,B,C]	*	*	*
*clefF4	*clefG2	*	*clefG2	*	*	*
*k[b-]	*k[b-]	*	*k[b-]	*	*	*
*F:	*F:	*	*F:	*	*	*
*M3/4	*M3/4	*	*M3/4	*	*	*
=1	=1	=1	=1	=1	=1	=1
*>A	*>A	*	*>A	*	*	*
*^	*^	*	*	*	*	*
*all\right	*	*	*all\right	*	*	*	*	*
!	!	!	!	!LO:DY:rj	!	!	!	!
8.A/L	4F\	8.f/L	4c\	p	2.r	.	.	.
16G#X/Jk	.	16e/Jk	.	.	.	.	.	.
4A/	4F\	4f/	4c\	.	.	.	.	.
4A/	4F\	4f/	4c\	.	.	.	.	.
*v	*v	*	*	*	*	*	*	*
=2	=2	=2	=2	=2	=2	=2	=2
*2\right	*	*2\right	*	*	*	*	*
2.F\ 2.FF;\	2.f;/	2.c\ 2.A\	.	2.r;	.	.	.
*	*v	*v	*	*	*	*	*
=3!|:	=3!|:	=3!|:	=3!|:	=3!|:	=3!|:	=3!|:
*>B	*>B	*	*>B	*	*	*
2.F\ 2.FF\	4r	.	8.f/	Dum-	I	.
.	.	.	16f/	-ko	do	.
.	4f/ 4c/ 4A/	.	4.f/	mo-	du-	.
.	4e/ 4c#X/ 4A/	.	.	.	.	.
.	.	.	8e/	-ja	-szy	.
=4	=4	=4	=4	=4	=4	=4
4F/ 4BB-/	4d/ 4B-/	.	8.e/	lu-	zstąp	.
.	.	.	16d/	-be	bo-	.
4F/ 4FF/	4c/ 4A/	.	4c/	dzie-	-ga-	.
4F/ 4AA/	4c/	.	4c/	-cię	-cza	.
=5	=5	=5	=5	=5	=5	=5
2C/	4r	.	8.c/	kwiat-	my-	.
.	.	.	16e/	-ku	-ślą	.
.	4e/ 4B-/ 4G/	.	4g/	mło-	pie-	.
4r	4e/ 4B-/ 4G/	.	4b-/	-dych	-kła	.
=6	=6	=6	=6	=6	=6	=6
2FF/	4r	.	2a/	lat	snuć,	.
.	4f/ 4c/ 4A/	.	.	.	.	.
4r	4f/ 4c/ 4A/	.	4r	.	.	.
=7	=7	=7	=7	=7	=7	=7
2.D\	4r	.	8a/	leć	a	.
.	.	.	8g#X/	i	dla	.
.	4f#X/ 4c/ 4A/	.	4.a/	bu-	bra-	.
.	4f#/ 4c/ 4A/	.	.	.	.	.
.	.	.	8d/	-jaj	-ta	.
!!LO:LB:g=original
=8	=8	=8	=8	=8	=8	=8
2GG/	4r	.	8c#X/	po	dla	.
.	.	.	8d/	tym	tu-	.
.	4g/ 4d/ 4B-/	.	4.a/	świe-	-ła-	.
4BB-/	4g/ 4d/ 4G/	.	.	.	.	.
.	.	.	8g/	-cie,	-cza	.
=9	=9	=9	=9	=9	=9	=9
2C/	4r	.	8f/	niech	o	.
.	.	.	8a/	cię	ro-	.
.	4f/ 4c/ 4A/	.	4.cc/	sły-	-dzi-	.
4C/	4e/ 4c/ 4G/	.	.	.	.	.
.	.	.	8b-/	-szy	-nie	.
=10	=10	=10	=10	=10	=10	=10
2F\	4r	.	2a/	swiat.	nuć.	.
.	4f/ 4c/ 4A/	.	.	.	.	.
4r	4a/ 4d#X/ 4c/	.	4r	.	.	.
=11	=11	=11	=11	=11	=11	=11
!	!	!	!	!	!	!
2AA/	4r	.	8.a/	Leć	Dum-	<
.	.	.	16e/	do	-ko	.
.	4a/ 4e/ 4c#X/	.	4a/	skrom-	mo-	.
4E/	4bn/ 4g#X/ 4d/	.	4bn/	-nej	-ja	[
=12	=12	=12	=12	=12	=12	=12
!	!	!	!	!	!	!
2AA/	4r	.	8.cc#X\	ci-	u-	mf
.	.	.	16bn\	-chej	-lu-	.
.	4bn/ 4e/ 4c#X/	.	4.b\	chat-	-bio-	.
4A\	4a/ 4e/ 4c#/	.	.	.	.	.
.	.	.	8a\	-ki,	-na	.
=13	=13	=13	=13	=13	=13	=13
2.D\	4r	.	8g#X/	tam.	da-	.
.	.	.	8bn/	jak	-léj,	.
.	4f#X/ 4d/ 4A/	.	4a/	wie-	da-	.
.	4f#/ 4d/ 4A/	.	4f#X/	-trzyk	-lej	.
!!LO:LB:g=original
=14	=14	=14	=14	=14	=14	=14
2AA/	4r	.	2e/	drżyj!	w świat,	.
.	4e/ 4c#X/ 4A/	.	.	.	.	.
4E\	4e/ 4d/ 4G#X/	.	4r	.	.	.
=15	=15	=15	=15	=15	=15	=15
2AA/	4r	.	8a/	leć	nie-	.
.	.	.	8e/	do	-po-	.
.	4a/ 4e/ 4cn/	.	4a/	sie-	-ję-	.
!	!	!	!LO:SIC:v:s=4bn/	!	!	!
4E\	4bn/ 4g#X/ 4d/	.	4b-/	-rot,	-ta	.
=16	=16	=16	=16	=16	=16	=16
2A\	4r	.	8.ccn\	wdów	wróć	.
.	.	.	16bn\	i	do	.
.	4bn/ 4e/ 4c/	.	4.b\	mat-	ło-	.
4AA/	4a/ 4e/ 4c/	.	.	.	.	.
.	.	.	8a\	-ki...	-na	.
=17	=17	=17	=17	=17	=17	=17
2BB-/	4r	.	8g/	im	jak	.
.	.	.	8b-X/	po-	pa-	.
.	4g/ 4d/ 4B-/	.	4d/	-cie-	-mią-	.
4GG/	4g/ 4d/ 4B-/	.	4g/	-chą	-tek	.
=18	=18	=18	=18	=18	=18	=18
*	*^	*	*	*	*	*
2.G\ 2.C\	8e/L	2.e\	.	2e/	brzmij.	kwiat.	.
.	8g/J	.	.	.	.	.	.
.	2cc/	.	.	.	.	.	.
.	.	.	.	4r	.	.	.
*	*v	*v	*	*	*	*	*
=19:|!	=19:|!	=19:|!	=19:|!	=19:|!	=19:|!	=19:|!
*>C	*>C	*	*>C	*	*	*
2F\ 2FF\	4r	.	8.f/	Bo	.	.
.	.	.	16f/	pierś	.	.
.	4f/ 4c/ 4A/	.	4.f/	oj-	.	.
4r	4e/ 4c#X/ 4A/	.	.	.	.	.
.	.	.	8e/	-ca	.	.
=20	=20	=20	=20	=20	=20	=20
4F/ 4BB-/	4d/ 4B-/	.	8e/	cię	.	.
.	.	.	8d/	zro-	.	.
4F/ 4FF/	4c/ 4A/	.	4c/	-zu-	.	.
4F/ 4AA/	4c/	.	4c/	-mie	.	.
!!LO:LB:g=original
=21	=21	=21	=21	=21	=21	=21
2C/	4r	.	8c/	i	.	.
.	.	.	8e/	schro-	.	.
.	4e/ 4B-/ 4G/	.	4g/	-nie-	.	.
4r	4e/ 4B-/ 4G/	.	4b-/	-nie	.	.
=22	=22	=22	=22	=22	=22	=22
2F\	4r	.	2a/	da	.	.
.	4f/ 4A/	.	.	.	.	.
4r	4f/ 4c/ 4A/	.	4r	.	.	.
=23	=23	=23	=23	=23	=23	=23
2.D\	4r	.	8a/	tam	.	.
.	.	.	8g#X/	u-	.	.
.	4f#X/ 4c/ 4A/	.	4.a/	-kry-	.	.
.	4f#/ 4c/ 4A/	.	.	.	.	.
.	.	.	8e/	-ta	.	.
=24	=24	=24	=24	=24	=24	=24
2GG/	4r	.	8d#X/	w u-	.	.
.	.	.	8e/	-czuć	.	.
.	4g/ 4d/ 4B-/	.	4.a/	tłu-	.	.
4BB-/	4g/ 4d/ 4G/	.	.	.	.	.
.	.	.	8g/	-mie	.	.
=25	=25	=25	=25	=25	=25	=25
4C/	(<4f/ 4c/ 4A/	.	8f/	bę-	.	.
.	.	.	8a/	-dziesz	.	.
!	!	!LO:DY:rj:b=2	!	!	!	!
2C/ 2CC/	4f/ 4Bn/ 4G#X/	sf	4.dd\	lsnic	.	.
.	4e/ 4B-X/ 4Gn/)	.	.	.	.	.
.	.	.	8cc\	jak	.	.
=26	=26	=26	=26	=26	=26	=26
2.C/ 2.FF/	2.f/ 2.A/	.	2f/	łza.	.	.
.	.	.	4r	.	.	.
=27	=27	=27	=27	=27	=27	=27
*^	*^	*	*	*	*	*
!	!	!	!	!LO:DY:rj	!	!	!	!
8.A/L	4F\	8.f/L	4c\	ppp	2.r	.	.	.
16G#X/Jk	.	16e/Jk	.	.	.	.	.	.
4A/	4F\	4f/	4c\	.	.	.	.	.
4A/	4F\	4f/	4c\	.	.	.	.	.
*v	*v	*	*	*	*	*	*	*
=28	=28	=28	=28	=28	=28	=28	=28
2.F\ 2.FF\	2.f;/	2.c\ 2.A\	.	2.r;	.	.	.
*	*v	*v	*	*	*	*	*
==	==	==	==	==	==	==
*-	*-	*-	*-	*-	*-	*-
!!!system-decoration: {s1,<(s2,s3)>}
!!!RDF**kern: > = above
!!!RDF**kern: < = below
!!!ENC: Katarzyna Serwa
!!!END: 2021-08-21
!!!EED: Andrzej Borzym
!!!EEV: 2021-10-05
!!!YEC: Copyright 2022 Narodowy Instytut Fryderyka Chopina (https://polishscores.org)
!!!YEM: Licence CC BY 4.0 (https://creativecommons.org/licenses/by/4.0)
